( Made using CamBam - http://www.cambam.co.uk )
( Grbl Post Processor )
( ver: okk-1.1 )
(simple_test 1/9/2020 12:39:24 PM)
( T4 : 3.175 )
G21 G90
G0 Z3.0
( T4 : 3.175 )
T4
(MOP Start: Profilo 1 )
( T4 : 3.175 )
T4
G17
M8
M3
S1000
G0 X94.5885 Y35.0573
G0 Z1.0
G1 F500.0 Z-1.0
G1 F2400.0 X115.1663
G0 Z0.25
G1 X122.3413
G1 F500.0 Z-1.0
G1 F2400.0 X140.8906
G3 X142.4781 Y36.6448 I0.0 J1.5875
G1 Y51.8861
G0 Z0.25
G1 Y59.0611
G1 F500.0 Z-1.0
G1 F2400.0 Y62.8385
G3 X140.8906 Y64.426 I-1.5875 J0.0
G1 X94.5885
G3 X93.001 Y62.8385 I0.0 J-1.5875
G1 Y58.0695
G0 Z0.25
G1 Y50.8945
G1 F500.0 Z-1.0
G1 F2400.0 Y36.6448
G3 X94.5885 Y35.0573 I1.5875 J0.0
G1 F500.0 Z-2.0
G1 F2400.0 X115.1663
G0 Z0.25
G1 X122.3413
G0 Z0.0
G1 F500.0 Z-2.0
G1 F2400.0 X140.8906
G3 X142.4781 Y36.6448 I0.0 J1.5875
G1 Y51.8861
G0 Z0.25
G1 Y59.0611
G0 Z0.0
G1 F500.0 Z-2.0
G1 F2400.0 Y62.8385
G3 X140.8906 Y64.426 I-1.5875 J0.0
G1 X94.5885
G3 X93.001 Y62.8385 I0.0 J-1.5875
G1 Y58.0695
G0 Z0.25
G1 Y50.8945
G0 Z0.0
G1 F500.0 Z-2.0
G1 F2400.0 Y36.6448
G3 X94.5885 Y35.0573 I1.5875 J0.0
G1 F500.0 Z-2.25
G1 F2400.0 X115.1663
G0 Z0.25
G1 X122.3413
G0 Z-1.0
G1 F500.0 Z-2.25
G1 F2400.0 X140.8906
G3 X142.4781 Y36.6448 I0.0 J1.5875
G1 Y51.8861
G0 Z0.25
G1 Y59.0611
G0 Z-1.0
G1 F500.0 Z-2.25
G1 F2400.0 Y62.8385
G3 X140.8906 Y64.426 I-1.5875 J0.0
G1 X94.5885
G3 X93.001 Y62.8385 I0.0 J-1.5875
G1 Y58.0695
G0 Z0.25
G1 Y50.8945
G0 Z-1.0
G1 F500.0 Z-2.25
G1 F2400.0 Y36.6448
G3 X94.5885 Y35.0573 I1.5875 J0.0
G0 Z3.0
G0 X77.412 Y47.0003
G0 Z1.0
G1 F500.0 Z-1.0
G3 F2400.0 X81.05 Y58.6052 I-16.6901 J11.6049
G3 X73.8333 Y74.1398 I-20.3281 J0.0
G0 Z0.25
G3 X67.6195 Y77.7273 I-13.1114 J-15.5346
G1 F500.0 Z-1.0
G3 F2400.0 X50.5578 Y76.2099 I-6.8977 J-19.1221
G3 X40.7128 Y62.1927 I10.1641 J-17.6047
G0 Z0.25
G3 Y55.0177 I20.0091 J-3.5875
G1 F500.0 Z-1.0
G3 F2400.0 X50.5578 Y41.0005 I20.0091 J3.5875
G3 X67.6195 Y39.4831 I10.1641 J17.6047
G0 Z0.25
G3 X73.8333 Y43.0706 I-6.8977 J19.1221
G1 F500.0 Z-1.0
G3 F2400.0 X77.412 Y47.0003 I-13.1114 J15.5346
G1 F500.0 Z-2.0
G3 F2400.0 X81.05 Y58.6052 I-16.6901 J11.6049
G3 X73.8333 Y74.1398 I-20.3281 J0.0
G0 Z0.25
G3 X67.6195 Y77.7273 I-13.1114 J-15.5346
G0 Z0.0
G1 F500.0 Z-2.0
G3 F2400.0 X50.5578 Y76.2099 I-6.8977 J-19.1221
G3 X40.7128 Y62.1927 I10.1641 J-17.6047
G0 Z0.25
G3 Y55.0177 I20.0091 J-3.5875
G0 Z0.0
G1 F500.0 Z-2.0
G3 F2400.0 X50.5578 Y41.0005 I20.0091 J3.5875
G3 X67.6195 Y39.4831 I10.1641 J17.6047
G0 Z0.25
G3 X73.8333 Y43.0706 I-6.8977 J19.1221
G0 Z0.0
G1 F500.0 Z-2.0
G3 F2400.0 X77.412 Y47.0003 I-13.1114 J15.5346
G1 F500.0 Z-2.25
G3 F2400.0 X81.05 Y58.6052 I-16.6901 J11.6049
G3 X73.8333 Y74.1398 I-20.3281 J0.0
G0 Z0.25
G3 X67.6195 Y77.7273 I-13.1114 J-15.5346
G0 Z-1.0
G1 F500.0 Z-2.25
G3 F2400.0 X50.5578 Y76.2099 I-6.8977 J-19.1221
G3 X40.7128 Y62.1927 I10.1641 J-17.6047
G0 Z0.25
G3 Y55.0177 I20.0091 J-3.5875
G0 Z-1.0
G1 F500.0 Z-2.25
G3 F2400.0 X50.5578 Y41.0005 I20.0091 J3.5875
G3 X67.6195 Y39.4831 I10.1641 J17.6047
G0 Z0.25
G3 X73.8333 Y43.0706 I-6.8977 J19.1221
G0 Z-1.0
G1 F500.0 Z-2.25
G3 F2400.0 X77.412 Y47.0003 I-13.1114 J15.5346
(MOP End: Profilo 1 )
G0 Z3.0
M9
M5
M2
